!!!OTL: The Sandman is Here
!!!OTL@@DE: Der Sandmann Ist Da
!!!ARE: Deutschland
**kern
*clefG2
*k[b-]
*M4/4
*MM 80
{4c
=1
2f
4f
4f
=2
2f}
4r
{4g
=3
2a
4a
4a
=4
2a}
4r
{4b-
=5
4cc
4cc
4dd
4cc
=6
4cc
4b-
4b-}
{4b-
=7
4a
4a
4cc
4a
=8
4a
4g
4g}
{4cc
=9
2a
4g
4g
=10
2f}
4r
==
*-